**kern	**text
*clefG2	*
*k[b-e-]	*
*M4/4	*
*MM145	*
=1	=1
4c'	.
4r	.
2r	.
=2	=2
1r	.
=3	=3
1r	.
=4	=4
1r	.
=5	=5
1r	.
=6	=6
1r	.
=7	=7
1r	.
=8	=8
1r	.
=9	=9
1r	.
=10	=10
8dL	ko
8cJ	o
4d'	be
8.dL	chu
[16dJk	o
8dL]	.
16dL	ku
16dJJ	mo
=11	=11
8cL	to
8dJ	ma
4d'	chi
2r	.
=12	=12
8dL	kyo
8cJ	ka
4d'	ra
8dL	do
16dL	ki
[16dJJ	do
8dL]	.
8dJ	ki
=13	=13
8dL	ni
16fL	ha
16fJJ	o
16fLL	ha
16fJ	n
8fJ	yu
8gL	ko
8f	o
8d	za
8dJ	ahh
=14	=14
8r	.
16dLL	o
16cJJ	to
4d'	na
8.dL	chu
[16dJk	ko
8dL]	.
16dL	se
16dJJ	o
=15	=15
8cL	ba
16dL	cha
16dJJ	n
4d'	ni
2r	.
=16	=16
16aLL	da
16a	me
16a	da
16aJJ	me
16aLL	ko
16a	ko
16a	de
16aJJ	wa
8gL	a
8g	na
8g	ta
8gJ	mo
=17	=17
8fL	ni
[8dJ	ha
16dKL]	.
8.d'J	o
2r	.
=18	=18
8dL	ma
8cJ	ji
4d'	de
8dL	te
16dL	ki
[16dJJ	su
8dL]	.
8dJ	to
=19	=19
16cLL	sa
16cJ	n
8dJ	pe
4d'	ji
2r	.
=20	=20
8dL	ko
8cJ	ko
4d'	wa
8dL	to
16dL	ni
[16dJJ	ka
8dL]	.
8dJ	ku
=21	=21
8dL	shu
16fL	chi
16fJJ	shi
8fL	n
8fJ	ni
8gL	ka
8fJ	tsu
4d	zo
*clefF4	*
=22	=22
8FL	breath
16dL	i
16cJJ	chi
16dKL	ma
8.d'J	n
*clefG2	*
16dKL	sa
8d	n
[16dJk	ze
32dKLL]	.
16.dJ	n
8dJ	no
=23	=23
8cL	ge
8dJ	sha
4d'	wa
2r	.
=24	=24
16aLL	ha
16a	o
16a	ha
16aJJ	o
8aL	da
32aKL	ji
16.aJJ	ya
8gL	go
8g	ki
8g	ge
8gJ	n
=25	=25
8fL	i
8dJ	ka
4d	ga
2r	.
=26	=26
8f	o
4g	ka
8f	sa
4f'	n
8fL	o
8gJ	o
=27	=27
8gL	ma
8fJ	sa
4f'	n
2r	.
=28	=28
8fL	ko
8g	ko
8g	wa
8fJ	do
4f'	ko
8cL	ki
8B-J	mi
=29	=29
8cL	wa
8B-J	da
4d	re
2r	.
=30	=30
8fL	da
8g	i
8g	su
8fJ	ki
4f'	na
8fL	wa
8gJ	n
=31	=31
8gL	ri
8fJ	i
8.b-L	ha
16b-Jk	n
4a	ni
4r	.
=32	=32
8gL	da
8g	i
8g	su
8gJ	ki
4g'	da
8gL	te
8gJ	yu
=33	=33
4f#X'	u
4g'	ta
4a	me
4r	.
=34	=34
12b-L	ha
12b-J	i
12r	.
12gL	ha
12gJ	i
12r	.
8fL	cha
8gJ	i
4g'	na
=35	=35
8b-L	cho
8b-	cho
8g	yu
8dJ	me
8fL	ko
8gJ	ko
4g	chi
=36	=36
4r	.
4b-	i
4a	a
4g	ru
=37	=37
8fL	fa
8g	n
8f	ku
8e-J	ra
4d	bu
4r	.
=38	=38
8b-L	da
8b-'	n
8g	da
8g'J	n
8fL	ki
8gJ	mi
4g'	to
=39	=39
8b-L	o
8b-	n
8g	na
8gJ	ji
8fL	ko
8g	to
8dd	ba
8ccJ	a
=40	=40
4b-	ga
4r	.
8b-L	tsu
8a	ka
8g	e
8aJ	ru
=41	=41
4b-	ne
4r	.
8fL	wo
8gJ	o
8ddL	a
16ccL	a
16ccJJ	i
=42	=42
4b-	ni
4r	.
8b-L	i
8a	e
8g	ru
8aJ	ka
=43	=43
2.b-	na
4r	.
=44	=44
1r	.
=45	=45
1r	.
=46	=46
1r	.
=47	=47
1r	.
=48	=48
1r	.
=49	=49
1r	.
=50	=50
1r	.
=51	=51
1r	.
=52	=52
8dL	so
8cJ	ko
4d'	de
8dL	shi
16dL	ri
16dJJ	a
8r	.
8d	ta
=53	=53
16cLL	jo
16cJ	shu
8dJ	ko
4d'	se
2r	.
=54	=54
8dL	i
8cJ	wa
4d'	ku
2r	.
=55	=55
1r	.
=56	=56
8r	.
16dLL	so
16cJJ	re
4d'	wa
8dL	i
16dL	ka
[16dJJ	na
8dL]	.
8dJ	kya
=57	=57
8cL	da
8d-XJ	me
4dn'	da
2r	.
=58	=58
16aLL	mi
16a	ka
16a	cha
16aJJ	n
16aKL	shi
8a'	re
16aJk	to
8g'L	i
16gL	te
16gJJ	ru
8gL	ke
8gJ	do
=59	=59
16fLL	ka
16dJ	i
8dJ	ga
8cL	i
8dJ	da
4d	yo
4r	.
=60	=60
8dL	ma
8c	ji
8d	de
8d'J	ehh
8dL	e
16dL	n
[16dJJ	ji
16dLL]	.
16dJ	n
8dJ	ka
=61	=61
8c'L	ka
16dL	te
16dJJ	n
4d	na
2r	.
=62	=62
8dL	ko
8cJ	ko
4d'	wa
8dL	to
16dL	ni
[16dJJ	ka
8dL]	.
8dJ	ku
=63	=63
16dLL	bi
16dJ	n
8fJ	jo
8fL	shi
8fJ	te
16gLL	ga
16g	n
16g	ba
16fJJ	ru
4d'	ka
=64	=64
8r	.
16dLL	ro
16cJJ	ku
16dKL	ma
8.d'J	n
8.dL	su
[16dJk	se
16dLL]	.
16dJ	n
8dJ	no
=65	=65
8cL	ryo
8dJ	hi
4d'	mo
2r	.
=66	=66
16aLL	so
16a	re
16a	de
16aJJ	wa
16aLL	za
16a	i
32aL	ji
32aJ	ye
16aJJ	n
16gLL	ba
16gJ	i
8gJ	to
8gL	sa
8gJ	ga
=67	=67
8fL	sa
8dJ	na
4d	kya
2r	.
=68	=68
8fL	su
8g	mi
8g	ma
8fJ	se
4f'	n
8fL	o
[8gJ	jo
=69	=69
8gL]	.
8fJ	sa
4f'	n
2r	.
=70	=70
8fL	ko
8g	re
8g	hi
8fJ	to
4f'	tsu
8cL	i
8B-J	ku
=71	=71
8cL	ra
8B-J	de
4d	sho
2r	.
=72	=72
8fL	te
8g	n
8g	go
8fJ	ku
4f'	no
8fL	re
8gJ	su
=73	=73
8gL	ri
8fJ	i
8.b-L	cha
16b-Jk	n
4a	ni
8r	.
8d	o
=74	=74
8gL	ya
8g	su
8g	mi
8gJ	na
8gL	sa
8gJ	i
8r	.
8g	te
=75	=75
4f#X	yu
4g'	ta
4a	me
4r	.
=76	=76
12b-L	ha
12b-J	i
12r	.
12gL	ha
12gJ	i
12r	.
8fL	cha
8gJ	i
4g'	na
=77	=77
8b-L	cho
8b-	cho
8g	yu
8dJ	me
8fL	ko
8gJ	ko
4g	chi
=78	=78
4r	.
4b-	i
4a	a
4g	ru
=79	=79
8fL	fa
8g	n
8f	ku
8e-J	ra
4d	bu
4r	.
=80	=80
8b-L	da
8b-'	n
8g	da
8g'J	n
8fL	ki
8gJ	mi
8.g'L	no
16fJk	tsu
=81	=81
8b-L	ta
8b-	e
8g	ta
8dJ	i
8fL	ki
8g	mo
8dd	chi
8ccJ	i
=82	=82
4b-	ga
4r	.
8b-L	wa
8a	ka
8g	a
8aJ	te
=83	=83
2b-	ku
2r	.
=84	=84
4g	a
4b-	ko
4f	ga
4g	re
=85	=85
4d	te
4r	.
4c	mu
4B-	chu
=86	=86
4c	u
4B-	ni
4f	na
4e-	a
=87	=87
4d	te
4r	.
4G	i
4B-	ka
=88	=88
8.dL	ge
16dJk	tsu
4r	.
4G	ni
4B-	ka
=89	=89
8.dL	ge
16dJk	tsu
4r	.
4c	ha
4B-	n
=90	=90
4c	to
4B-	shi
4f	su
4e-	gi
=91	=91
2d	ta
2r	.
=92	=92
4g	ri
4b-	a
4f	to
4g	mo
=93	=93
4d	wa
4r	.
4c	su
4B-	ko
=94	=94
4c	shi
4B-	he
4f	ta
4g	ke
=95	=95
4B-	do
4r	.
4f	so
4g	re
=96	=96
4b-	mo
4r	.
4f	shi
4g	ka
=97	=97
4b-	ta
4r	.
4f	na
4b-	i
=98	=98
1a	ya
=99	=99
1r	.
=100	=100
12b-	ha
6b-	i
8.gL	ha
16gJk	i
8fL	cha
8gJ	i
4g'	na
=101	=101
8b-L	cho
8b-	cho
8g	yu
8dJ	me
8fL	ko
8gJ	ko
4g	chi
=102	=102
4r	.
4b-	i
4a	a
4g	ru
=103	=103
8fL	fa
8g	n
8f	ku
8e-J	ra
4d	bu
4r	.
=104	=104
8b-L	da
8b-'	n
8g	da
8g'J	n
8fL	ki
8gJ	mi
4g'	to
=105	=105
8b-L	o
8b-	n
8g	na
8dJ	ji
8fL	ko
8gJ	to
4cc	ba
=106	=106
4b-	ga
4r	.
8b-L	tsu
8a	ka
8g	e
8aJ	ru
=107	=107
4b-	ne
4r	.
2r	.
=108	=108
12b-L	ha
12b-J	i
12r	.
12ddL	ha
12ddJ	i
12r	.
8aL	cha
8gJ	i
4g'	na
=109	=109
8b-L	cho
8b-	cho
8g	yu
8dJ	me
8fL	ko
8gJ	ko
4g	chi
=110	=110
4r	.
4b-	i
4a	a
4g	ru
=111	=111
8fL	fa
8g	n
8f	ku
8e-J	ra
4d	bu
4r	.
=112	=112
8b-L	da
8b-'	n
8g	da
8g'J	n
8fL	ki
8gJ	mi
8.g'L	no
16fJk	tsu
=113	=113
8b-L	ta
8b-	e
8cc	ta
8ddJ	i
8ccL	ki
8b-J	mo
4a	chi
=114	=114
4b-	ga
4r	.
8b-L	wa
8a	ka
8g'	a
8aJ	te
=115	=115
4b-	ku
4r	.
4f	wo
8.ddL	a
16ddJk	i
=116	=116
4b-	ni
4b-'	ihh
8b-L	i
8a	wa
8g	se
8aJ	te
=117	=117
[1b-	yo
=118	=118
4b-]	.
4r	.
2r	.
=119	=119
1r	.
=120	=120
4r	.
4b-	i
4a	a
4g	ru
=121	=121
8fL	fa
8g	n
8f	ku
8e-J	ra
4d	bu
4r	.
=122	=122
1r	.
=123	=123
1r	.
=124	=124
1r	.
=125	=125
2r	.
8fL	wo
8gJ	o
8ddL	a
16ccL	a
16ccJJ	i
=126	=126
4b-	ni
4r	.
8b-L	i
8a	e
8g	ru
8aJ	ka
=127	=127
2.b-	na
4r	.
==	==
*-	*-
